material/.icons/material/key-remove.svg

<svg xmlns="http://www.w3.org/2000/svg" viewBox="0 0 24 24"><path d="M6.5 3c1.96 0 3.63 1.25 4.24 3H22v3h-4v3h-3V9h-4.26c-.61 1.75-2.28 3-4.24 3C4 12 2 10 2 7.5S4 3 6.5 3m0 3A1.5 1.5 0 0 0 5 7.5 1.5 1.5 0 0 0 6.5 9 1.5 1.5 0 0 0 8 7.5 1.5 1.5 0 0 0 6.5 6m8.09 8L16 15.41 13.41 18 16 20.59 14.59 22 12 19.41 9.41 22 8 20.59 10.59 18 8 15.41 9.41 14 12 16.59 14.59 14z"/></svg>

<svg xmlns="http://www.w3.org/2000/svg" viewBox="0 0 24 24"><path d="M7.5 3c2 0 3.6 1.2 4.2 3H21v3h-3v3h-3V9h-3.3c-.6 1.8-2.3 3-4.2 3C5 12 3 10 3 7.5S5 3 7.5 3m0 3C6.7 6 6 6.7 6 7.5S6.7 9 7.5 9 9 8.3 9 7.5 8.3 6 7.5 6m7.1 8 1.4 1.4-2.6 2.6 2.6 2.6-1.4 1.4-2.6-2.6L9.4 22 8 20.6l2.6-2.6L8 15.4 9.4 14l2.6 2.6 2.6-2.6z"/></svg>
